src/images/icons/footer-youtube.svg

<svg fill="none" height="38" viewBox="0 0 53 38" width="53" xmlns="http://www.w3.org/2000/svg"><path d="m51.8591 5.79525c-.3045-1.11687-.8952-2.13493-1.7138-2.9535-.8186-.81858-1.8366-1.40932-2.9535-1.71381-4.1358-1.12794-20.7177-1.12794-20.7177-1.12794s-16.56901 0-20.71774 1.08904c-1.11626.31834-2.13187.91843-2.94924 1.74261s-1.40902 1.84474-1.71808 2.9636c-1.08904 4.14873-1.08904 12.74435-1.08904 12.74435s0 8.6864 1.08904 12.7314c.30213 1.1181.89208 2.1374 1.71102 2.9563.81893.819 1.83825 1.4089 2.9563 1.7111 4.18762 1.1409 20.74364 1.1409 20.74364 1.1409s16.5819 0 20.7436-1.0891c1.1169-.3045 2.135-.8952 2.9535-1.7138.8186-.8186 1.4094-1.8366 1.7139-2.9535 1.089-4.1487 1.089-12.7444 1.089-12.7444s0-8.63452-1.1409-12.78325zm-30.6617 20.74365v-15.9337l13.8075 7.9344z" fill="#1c1e3b"/></svg>

<svg width="53" height="38" viewBox="0 0 53 38" fill="none" xmlns="http://www.w3.org/2000/svg">
<path d="M51.8591 5.79525C51.5546 4.67838 50.9639 3.66032 50.1453 2.84175C49.3267 2.02317 48.3087 1.43243 47.1918 1.12794C43.056 0 26.4741 0 26.4741 0C26.4741 0 9.90509 0 5.75636 1.08904C4.6401 1.40738 3.62449 2.00747 2.80712 2.83165C1.98975 3.65583 1.3981 4.67639 1.08904 5.79525C0 9.94398 0 18.5396 0 18.5396C0 18.5396 0 27.226 1.08904 31.271C1.39117 32.3891 1.98112 33.4084 2.80006 34.2273C3.61899 35.0463 4.63831 35.6362 5.75636 35.9384C9.94398 37.0793 26.5 37.0793 26.5 37.0793C26.5 37.0793 43.0819 37.0793 47.2436 35.9902C48.3605 35.6857 49.3786 35.095 50.1971 34.2764C51.0157 33.4578 51.6065 32.4398 51.911 31.3229C53 27.1742 53 18.5785 53 18.5785C53 18.5785 53 9.94398 51.8591 5.79525ZM21.1974 26.5389V10.6052L35.0049 18.5396L21.1974 26.5389Z" fill="#1C1E3B"/>
</svg>
